build/img/category2__img_07.svg

<svg width="64" height="64" viewBox="0 0 64 64" fill="none" xmlns="http://www.w3.org/2000/svg">
<g opacity="0.4">
<path d="M25.8066 42.3225H38.1937V36.1289H25.8066V42.3225ZM27.8712 38.1934H36.1292V40.2579H27.8712V38.1934Z" fill="#333333"/>
<path d="M25.8066 13.4192V19.6127H38.1937V13.4192H25.8066ZM36.1292 17.5482H27.8712V15.4837H36.1292V17.5482Z" fill="#333333"/>
<path d="M59.871 3.09668H4.12903C1.85187 3.09668 0 4.94855 0 7.22571C0 9.50287 1.85187 11.3547 4.12903 11.3547V31.9999V33.0322V56.7741H11.3548V60.9031H21.6774V56.7741H42.3226V60.9031H52.6452V56.7741H59.871V33.0322V31.9999V11.3547C62.1481 11.3547 64 9.50287 64 7.22571C64 4.94855 62.1481 3.09668 59.871 3.09668ZM6.19355 11.3547H8.25806V31.9999H6.19355V11.3547ZM10.3226 31.9999V11.3547H53.6774V31.9999H10.3226ZM6.19355 34.0644H8.25806V54.7096H6.19355V34.0644ZM19.6129 58.8386H13.4194V56.7741H19.6129V58.8386ZM50.5806 58.8386H44.3871V56.7741H50.5806V58.8386ZM57.8064 54.7096H55.7419V52.6451H53.6774V54.7096H52.6452H42.3226H21.6774H11.3548H10.3226V34.0644H53.6774V52.6451H55.7419V34.0644H57.8064V54.7096ZM57.8064 31.9999H55.7419V11.3547H57.8064V31.9999ZM59.871 9.29023H4.12903C2.99045 9.29023 2.06452 8.36429 2.06452 7.22571C2.06452 6.08713 2.99045 5.1612 4.12903 5.1612H59.871C61.0095 5.1612 61.9355 6.08713 61.9355 7.22571C61.9355 8.36429 61.0095 9.29023 59.871 9.29023Z" fill="#333333"/>
</g>
</svg>

<svg width="64" height="64" fill="none" xmlns="http://www.w3.org/2000/svg"><g opacity=".4" fill="#333"><path d="M25.807 42.322h12.387V36.13H25.807v6.194zm2.064-4.129h8.258v2.065h-8.258v-2.065zM25.807 13.42v6.193h12.387v-6.194H25.807zm10.322 4.128h-8.258v-2.064h8.258v2.064z"/><path d="M59.871 3.097H4.129A4.133 4.133 0 000 7.226a4.133 4.133 0 004.129 4.129v45.419h7.226v4.13h10.322v-4.13h20.646v4.13h10.322v-4.13h7.226V11.355A4.133 4.133 0 0064 7.225a4.133 4.133 0 00-4.129-4.128zM6.194 11.355h2.064V32H6.194V11.355zM10.323 32V11.355h43.354V32H10.323zm-4.13 2.064h2.065V54.71H6.194V34.064zm13.42 24.775h-6.194v-2.065h6.194v2.065zm30.968 0h-6.194v-2.065h6.194v2.065zm7.225-4.13h-2.064v-2.064h-2.065v2.065H10.323V34.064h43.354v18.581h2.065v-18.58h2.064V54.71zm0-22.71h-2.064V11.356h2.064V32zM59.871 9.29H4.129a2.067 2.067 0 01-2.064-2.064c0-1.139.925-2.065 2.064-2.065h55.742c1.139 0 2.064.926 2.064 2.065a2.067 2.067 0 01-2.064 2.064z"/></g></svg>
